X:1
T:Title
%%score { 1 | ( 2 3 ) }
L:1/8
M:6/8
K:Bb
V:1 treble nm="Grand Piano"
V:2 bass 
V:3 bass 
V:1
 z3 z2[Q:1/4=100] [DF] | [DB][EA][FB] cBG | [DF]3- [DF]2 [DF] | GEG F2 E | D3- D2 [DF] | %5
 [DB][EA][FB] cBG | [DF]2 [B,D] [DF]2 [DF] | G2 B ABc | [DB]3- [DB]2 [FB] | A2 A ABc | %10
 [DB]3- [DB]2 [Fd] | c2 c d2 [B=e] | [Af]3- [Af]2 e | d2 [FB] cBG | [DF]2 [B,D] [DF]2 [DF] | %15
 G2 B ABc | .[DB]6 | [DB]2 [Fd] [Fd]3 | c2 e e2 c | d2 d [B=e]2 [Be] | [Af]3- [Af]2 e | %21
 d2 [FB] cBG | [DF]2 [B,D] [DF]2 [DF] | G2 B ABc |[M:7/4] [DB]4 z2 z2 z2 z4 |] %25
V:2
 z3 z2 [B,,B,] | F,-[C,F,][D,F,] [E,G,E]2 [E,B,E] | [B,,B,]3- [B,,B,]2 [B,,B,] | %3
 [B,E][G,B,][E,B,E] [F,B,D]2 [F,C] | [B,,F,B,]3- [B,,F,B,]2 [B,,B,] | %5
 B,,C,[D,F,] [E,G,E]2 [E,B,E] | [B,,B,]2 [B,,F,] [B,,B,]2 [B,,B,] | [E,B,E]2 [E,G,E] CD[F,E] | %8
 [B,,F,]3- [B,,F,]2 [D,B,] | [F,CF]2 [F,CF] CD[F,E] | [B,,F,]3- [B,,F,]2 [B,,B,] | %11
 [F,A,F]2 [F,A,F] [B,F]2[K:bass] [G,C] | [F,C]3- [F,C]2[K:treble] [F,A,F] | %13
 [B,F]2[K:bass] [D,B,] [E,G,E]2 [E,B,E] | [B,,B,]2 [B,,F,] [B,,B,]2 [B,,B,] | %15
 [E,B,E]2 [E,G,E] CD[F,E] | .[B,,F,]6 | [B,,F,]2 [B,,B,] [B,,B,]3 | %18
 [F,A,F]2 [F,A,F] [F,A,F]2 [F,A,F] | [B,F]2 [B,F][K:bass] [G,C]2 [G,C] | [F,C]3- [F,C]2 [F,A,F] | %21
 [B,F]2 [D,B,] [E,G,E]2 [E,B,E] | [B,,B,]2 [B,,F,] [B,,B,]2 [B,,B,] | [E,B,E]2 [E,G,E] CD[F,E] | %24
[M:7/4] [B,,F,]4 z2 z2 z2 z4 |] %25
V:3
 x6 | .B,,3 z3 | x6 | .E,3 z3 | x6 | .F,3 z3 | x6 | z3 .F,3 | x6 | z3 .F,3 | x6 | x5[K:bass] x | %12
 x5[K:treble] x | x2[K:bass] x4 | x6 | z3 .F,3 | x6 | x6 | x6 | x3[K:bass] x3 | x6 | x6 | x6 | %23
 z3 .F,3 |[M:7/4] x14 |] %25

